static/images/uploads/family.svg

<?xml version="1.0" encoding="UTF-8"?>
<svg width="33px" height="30px" viewBox="0 0 33 30" version="1.1" xmlns="http://www.w3.org/2000/svg" xmlns:xlink="http://www.w3.org/1999/xlink">
    <!-- Generator: Sketch 50.2 (55047) - http://www.bohemiancoding.com/sketch -->
    <title>Group</title>
    <desc>Created with Sketch.</desc>
    <defs></defs>
    <g id="-" stroke="none" stroke-width="1" fill="none" fill-rule="evenodd">
        <g id="Parent-Private-Charters" transform="translate(-1183.000000, -1925.000000)" fill="#413F47">
            <g id="Group-24" transform="translate(0.000000, 1620.000000)">
                <g id="Group-4-Copy-3" transform="translate(1075.000000, 305.000000)">
                    <g id="Group-20">
                        <g id="Group" transform="translate(108.000000, 0.000000)">
                            <path d="M6.12539286,1.59142857 C6.91789286,1.59142857 7.56253571,2.23607143 7.56253571,3.02857143 C7.56253571,3.82107143 6.91789286,4.46571429 6.12539286,4.46571429 C5.33289286,4.46571429 4.68825,3.82107143 4.68825,3.02857143 C4.68825,2.23607143 5.33289286,1.59142857 6.12539286,1.59142857 M6.12539286,6.05714286 C7.79789286,6.05714286 9.15396429,4.70107143 9.15396429,3.02857143 C9.15396429,1.35607143 7.79789286,0 6.12539286,0 C4.45289286,0 3.09682143,1.35607143 3.09682143,3.02857143 C3.09682143,4.70107143 4.45289286,6.05714286 6.12539286,6.05714286" id="Fill-1"></path>
                            <path d="M12.2271786,16.21 L10.51825,9.38142857 C10.2789643,8.42464286 9.42253571,7.75571429 8.43575,7.75571429 L4.93003571,7.75571429 C3.28753571,7.75571429 1.86110714,8.86892857 1.46217857,10.4625 L0.00860714286,20.2646429 C-0.0553214286,20.6992857 0.244321429,21.1039286 0.679321429,21.1682143 C0.718964286,21.1739286 0.75825,21.1767857 0.797178571,21.1767857 C1.18503571,21.1767857 1.52503571,20.8928571 1.58325,20.4975 L1.64753571,20.0632143 L3.01539286,10.8139286 C3.24825,9.94892857 4.03075,9.3475 4.93003571,9.3475 L8.43575,9.3475 C8.69110714,9.3475 8.91253571,9.52035714 8.97432143,9.76785714 L10.68325,16.5964286 C10.69075,16.6257143 10.7028929,16.6525 10.71325,16.68 C10.85325,17.055 11.2521786,17.2732143 11.64825,17.175 C12.0743214,17.0682143 12.3336071,16.6360714 12.2271786,16.21" id="Fill-3"></path>
                            <path d="M4.45646429,19.0153571 C4.45396429,19.0153571 4.45146429,19.0146429 4.44896429,19.0146429 C4.24932143,19.0146429 4.06932143,19.0907143 3.92932143,19.2121429 C3.76146429,19.3578571 3.65325,19.5703571 3.65325,19.8103571 L3.65325,28.805 C3.65325,29.2442857 4.00967857,29.6007143 4.44896429,29.6007143 C4.88825,29.6007143 5.24467857,29.2442857 5.24467857,28.805 L5.24467857,19.8103571 C5.24467857,19.3735714 4.89253571,19.0196429 4.45646429,19.0153571" id="Fill-5"></path>
                            <path d="M7.00607143,19.8103571 L7.00607143,28.805 C7.00607143,29.2442857 7.3625,29.6003571 7.80178571,29.6003571 C8.24107143,29.6003571 8.5975,29.2439286 8.5975,28.8046429 L8.5975,19.8103571 C8.5975,19.3710714 8.24107143,19.0146429 7.80178571,19.0146429 C7.3625,19.0146429 7.00607143,19.3710714 7.00607143,19.8103571 Z" id="Fill-7"></path>
                            <path d="M26.0175357,3.18285714 C26.8100357,3.18285714 27.4546786,3.8275 27.4546786,4.62 C27.4546786,5.4125 26.8100357,6.05714286 26.0175357,6.05714286 C25.2250357,6.05714286 24.5803929,5.4125 24.5803929,4.62 C24.5803929,3.8275 25.2250357,3.18285714 26.0175357,3.18285714 M26.0175357,7.64857143 C27.6900357,7.64857143 29.0461071,6.2925 29.0461071,4.62 C29.0461071,2.9475 27.6900357,1.59142857 26.0175357,1.59142857 C24.3450357,1.59142857 22.9889643,2.9475 22.9889643,4.62 C22.9889643,6.2925 24.3450357,7.64857143 26.0175357,7.64857143" id="Fill-9"></path>
                            <path d="M32.1328929,20.255 L30.6943214,11.325 L30.68075,11.2585714 C30.2818214,9.665 28.8553929,8.55178571 27.2128929,8.55178571 L24.8218214,8.55178571 C23.1793214,8.55178571 21.7528929,9.665 21.3618214,11.2296429 L19.9236071,16.1814286 C19.8011071,16.6032143 20.0439643,17.0446429 20.4661071,17.1675 C20.8689643,17.2839286 21.28575,17.0667857 21.4300357,16.68 C21.4371786,16.6614286 21.4464643,16.6442857 21.4521786,16.625 L22.89825,11.6446429 C23.1196786,10.7607143 23.91075,10.1428571 24.8221786,10.1428571 L27.21325,10.1428571 C28.1143214,10.1428571 28.8978929,10.7460714 29.1293214,11.6146429 L30.4896786,20.0614286 L30.5618214,20.5082143 C30.6246786,20.8989286 30.9628929,21.1771429 31.3464643,21.1771429 C31.38825,21.1771429 31.43075,21.1739286 31.4739643,21.1671429 C31.9075357,21.0971429 32.2028929,20.6889286 32.1328929,20.255" id="Fill-11"></path>
                            <path d="M27.6943214,19.0146429 C27.6911071,19.0146429 27.6889643,19.0153571 27.6864643,19.0153571 C27.25075,19.0196429 26.89825,19.3735714 26.89825,19.8103571 L26.89825,28.805 C26.89825,29.2442857 27.2546786,29.6007143 27.6939643,29.6007143 C28.13325,29.6007143 28.4896786,29.2442857 28.4896786,28.805 L28.4896786,19.8103571 C28.4896786,19.5703571 28.3814643,19.3578571 28.2136071,19.2121429 C28.0739643,19.0907143 27.8936071,19.0146429 27.6943214,19.0146429" id="Fill-13"></path>
                            <path d="M23.5453929,19.8103571 L23.5453929,28.805 C23.5453929,29.2442857 23.9018214,29.6007143 24.3411071,29.6007143 C24.7803929,29.6003571 25.1368214,29.2442857 25.1368214,28.805 L25.1368214,19.8103571 C25.1368214,19.3710714 24.7803929,19.0146429 24.3411071,19.0146429 C23.9018214,19.0146429 23.5453929,19.3710714 23.5453929,19.8103571 Z" id="Fill-15"></path>
                            <path d="M15.9700357,15.1914286 C16.6696786,15.1914286 17.2389643,15.7607143 17.2389643,16.46 C17.2389643,17.1596429 16.6696786,17.7289286 15.9700357,17.7289286 C15.2703929,17.7289286 14.7011071,17.1596429 14.7011071,16.46 C14.7011071,15.7603571 15.2703929,15.1914286 15.9700357,15.1914286 M15.9700357,19.32 C17.5471786,19.32 18.8303929,18.0367857 18.8303929,16.4596429 C18.8303929,14.8825 17.5471786,13.5996429 15.9700357,13.5996429 C14.3928929,13.5996429 13.1096786,14.8825 13.1096786,16.4596429 C13.1096786,18.0367857 14.3928929,19.32 15.9700357,19.32" id="Fill-17"></path>
                            <path d="M19.9328929,18.8639286 C19.53325,18.6821429 19.0614643,18.8582143 18.8793214,19.2585714 L17.9021786,21.4071429 C17.8414643,21.5039286 17.4343214,21.7357143 16.7850357,21.7357143 L15.15575,21.7357143 C14.5068214,21.7357143 14.0996786,21.5039286 14.0421786,21.4132143 L13.0614643,19.2585714 C12.8793214,18.8578571 12.4068214,18.6817857 12.0078929,18.8639286 C11.6078929,19.0457143 11.4311071,19.5178571 11.61325,19.9175 L12.5939643,22.0721429 C12.94075,22.8342857 13.9464643,23.3271429 15.15575,23.3271429 L16.7850357,23.3271429 C17.9943214,23.3271429 19.0000357,22.8346429 19.3471786,22.0721429 L20.3275357,19.9175 C20.5096786,19.5178571 20.3328929,19.0457143 19.9328929,18.8639286" id="Fill-19"></path>
                            <path d="M14.8275357,24.0121429 C14.38825,24.0121429 14.0318214,24.3685714 14.0318214,24.8078571 L14.0318214,29.0407143 C14.0318214,29.48 14.38825,29.8364286 14.8275357,29.8364286 C15.2668214,29.8364286 15.62325,29.48 15.62325,29.0407143 L15.62325,24.8078571 C15.62325,24.3685714 15.2668214,24.0121429 14.8275357,24.0121429" id="Fill-21"></path>
                            <path d="M17.1128929,24.0121429 C16.6736071,24.0121429 16.3171786,24.3685714 16.3171786,24.8078571 L16.3171786,29.0407143 C16.3171786,29.48 16.6736071,29.8364286 17.1128929,29.8364286 C17.5521786,29.8364286 17.9086071,29.48 17.9086071,29.0407143 L17.9086071,24.8078571 C17.9086071,24.3682143 17.5525357,24.0121429 17.1128929,24.0121429" id="Fill-23"></path>
                        </g>
                    </g>
                </g>
            </g>
        </g>
    </g>
</svg>

<svg width="33" height="30" xmlns="http://www.w3.org/2000/svg"><g fill="#413F47" fill-rule="evenodd"><path d="M6.125 1.591a1.439 1.439 0 0 1 0 2.874A1.439 1.439 0 0 1 4.688 3.03c0-.793.645-1.438 1.437-1.438m0 4.466a3.029 3.029 0 1 0 0-6.057 3.029 3.029 0 0 0 0 6.057M12.227 16.21l-1.709-6.829a2.144 2.144 0 0 0-2.082-1.625H4.93a3.57 3.57 0 0 0-3.468 2.707L.01 20.264a.796.796 0 0 0 1.574.232l.065-.434 1.367-9.25A1.98 1.98 0 0 1 4.93 9.348h3.506c.255 0 .477.173.538.42l1.71 6.83c.007.029.019.055.03.083a.794.794 0 0 0 1.513-.47"/><path d="M4.456 19.015H4.45a.79.79 0 0 0-.52.197.79.79 0 0 0-.276.598v8.995a.796.796 0 0 0 1.592 0V19.81a.795.795 0 0 0-.789-.795M7.006 19.81v8.995a.796.796 0 0 0 1.591 0V19.81a.796.796 0 0 0-1.59 0zM26.018 3.183c.792 0 1.437.645 1.437 1.437s-.645 1.437-1.437 1.437A1.439 1.439 0 0 1 24.58 4.62c0-.792.645-1.437 1.438-1.437m0 4.466a3.029 3.029 0 1 0 0-6.058 3.029 3.029 0 0 0 0 6.058M32.133 20.255l-1.439-8.93-.013-.066a3.57 3.57 0 0 0-3.468-2.707h-2.391c-1.643 0-3.07 1.113-3.46 2.678l-1.438 4.951a.794.794 0 1 0 1.506.499c.007-.019.016-.036.022-.055l1.446-4.98a1.981 1.981 0 0 1 1.924-1.502h2.391a1.98 1.98 0 0 1 1.916 1.472l1.36 8.446.073.447a.796.796 0 0 0 1.57-.253"/><path d="M27.694 19.015h-.008a.796.796 0 0 0-.788.795v8.995a.796.796 0 0 0 1.592 0V19.81a.79.79 0 0 0-.276-.598.789.789 0 0 0-.52-.197M23.545 19.81v8.995a.796.796 0 0 0 1.592 0V19.81a.796.796 0 0 0-1.592 0zM15.97 15.191c.7 0 1.269.57 1.269 1.269 0 .7-.57 1.269-1.269 1.269-.7 0-1.269-.57-1.269-1.269 0-.7.57-1.269 1.269-1.269m0 4.129a2.864 2.864 0 0 0 2.86-2.86 2.863 2.863 0 0 0-2.86-2.86 2.863 2.863 0 0 0-2.86 2.86 2.864 2.864 0 0 0 2.86 2.86"/><path d="M19.933 18.864a.795.795 0 0 0-1.054.395l-.977 2.148c-.06.097-.468.329-1.117.329h-1.63c-.648 0-1.055-.232-1.113-.323l-.98-2.154a.795.795 0 1 0-1.449.659l.981 2.154c.347.762 1.352 1.255 2.562 1.255h1.629c1.21 0 2.215-.492 2.562-1.255l.98-2.154a.795.795 0 0 0-.394-1.054M14.828 24.012a.796.796 0 0 0-.796.796v4.233a.796.796 0 0 0 1.591 0v-4.233a.796.796 0 0 0-.795-.796M17.113 24.012a.796.796 0 0 0-.796.796v4.233a.796.796 0 0 0 1.592 0v-4.233a.795.795 0 0 0-.796-.796"/></g></svg>
